X: 35
M:6/8
L:1/8
K:G
uD"^Segno"|vG"4"AG GBd|gfe dBG|cd"4"e dfg|abg fed|\
uB|vBcB Bef|gf"0"e "4"e^d"4"e|fkcB fkcB|g"4"e^d "4"eBG|\
fgf (Bgf)|1 eBG E2:|2 edc AFD"_D.S.""^Segno"[|]|]


